static/icon/flag/javascript.svg

<svg t="1769740377032" class="icon" viewBox="0 0 1024 1024" version="1.1" xmlns="http://www.w3.org/2000/svg" p-id="7122" width="200" height="200"><path d="M256 128a128 128 0 0 0-128 128v512a128 128 0 0 0 128 128h512a128 128 0 0 0 128-128V256a128 128 0 0 0-128-128H256z m312.917333 557.013333c30.72 24.746667 61.354667 36.906667 91.989334 36.608 18.773333 0 33.194667-3.413333 43.178666-10.325333a32 32 0 0 0 14.549334-28.16 41.429333 41.429333 0 0 0-14.506667-31.914667c-10.026667-8.746667-28.970667-17.493333-56.832-26.282666-33.450667-9.685333-59.306667-22.186667-77.44-37.546667-17.834667-15.36-26.88-36.778667-27.221333-64.298667 0-25.984 11.264-47.701333 33.792-65.237333 21.930667-17.493333 49.92-26.282667 84.053333-26.282667 47.530667 0 85.717333 11.562667 114.474667 34.730667l-32.853334 51.157333a110.805333 110.805333 0 0 0-39.893333-19.712 137.002667 137.002667 0 0 0-40.362667-7.04c-16.213333 0-29.226667 2.986667-38.954666 8.917334-9.685333 5.973333-14.506667 13.781333-14.506667 23.466666 0 10.666667 5.930667 19.712 17.792 27.221334 11.946667 7.210667 32.256 15.189333 61.013333 23.936 34.730667 10.325333 59.477333 24.106667 74.154667 41.301333 14.72 17.194667 22.058667 39.125333 22.058667 65.706667 0 27.221333-10.453333 50.688-31.445334 70.4-20.650667 19.413333-50.688 29.568-90.112 30.506666-51.626667 0-94.805333-15.488-129.536-46.464l36.608-50.688z m-235.946666 27.221334c10.026667 6.272 22.058667 9.386667 36.138666 9.386666 14.72 0 26.88-4.224 36.608-12.672 9.685333-8.746667 14.549333-23.936 14.549334-45.525333v-226.218667h63.36v238.421334c-0.938667 36.906667-11.562667 63.530667-31.914667 79.786666a105.216 105.216 0 0 1-38.016 20.650667 140.629333 140.629333 0 0 1-39.893333 6.101333c-23.466667 0-44.288-4.053333-62.421334-12.202666-19.413333-8.746667-35.669333-24.234667-48.810666-46.464l44.117333-36.138667c8.106667 10.965333 16.896 19.242667 26.282667 24.874667z" fill="#000000" p-id="7123"></path></svg>

<?xml version="1.0" encoding="UTF-8" standalone="no"?>
<!DOCTYPE svg PUBLIC "-//W3C//DTD SVG 1.1//EN" "http://www.w3.org/Graphics/SVG/1.1/DTD/svg11.dtd">
<svg width="100%" height="100%" viewBox="0 0 198 200" version="1.1" xmlns="http://www.w3.org/2000/svg" xmlns:xlink="http://www.w3.org/1999/xlink" xml:space="preserve" xmlns:serif="http://www.serif.com/" style="fill-rule:evenodd;clip-rule:evenodd;stroke-linejoin:round;stroke-miterlimit:2;">
    <g transform="matrix(1,0,0,1,-0.000043,2)">
        <g transform="matrix(1,0,0,1,-1.19722,-1.267959)">
            <g transform="matrix(0.99,0,0,1,100.197241,99.267959)">
                <g transform="matrix(1,0,0,1,-100,-100)">
                    <g transform="matrix(0.195312,0,0,0.195312,0,0)">
                        <path d="M256,128C185.781,128 128,185.781 128,256L128,768C128,838.219 185.781,896 256,896L768,896C838.219,896 896,838.219 896,768L896,256C896,185.781 838.219,128 768,128L256,128ZM568.917,685.013C599.637,709.76 630.272,721.92 660.907,721.621C679.68,721.621 694.101,718.208 704.085,711.296C713.559,705.147 719.1,694.421 718.635,683.136C718.76,670.882 713.443,659.184 704.128,651.221C694.101,642.475 675.157,633.728 647.296,624.939C613.845,615.253 587.989,602.752 569.856,587.392C552.021,572.032 542.976,550.613 542.635,523.093C542.635,497.109 553.899,475.392 576.427,457.856C598.357,440.363 626.347,431.573 660.48,431.573C708.011,431.573 746.197,443.136 774.955,466.304L742.101,517.461C730.274,508.261 716.702,501.555 702.208,497.749C689.183,493.393 675.576,491.02 661.845,490.709C645.632,490.709 632.619,493.696 622.891,499.627C613.205,505.6 608.384,513.408 608.384,523.093C608.384,533.76 614.315,542.805 626.176,550.315C638.123,557.525 658.432,565.504 687.189,574.251C721.92,584.576 746.667,598.357 761.344,615.552C776.064,632.747 783.403,654.677 783.403,681.259C783.403,708.48 772.949,731.947 751.957,751.659C731.307,771.072 701.269,781.227 661.845,782.165C610.219,782.165 567.04,766.677 532.309,735.701L568.917,685.013ZM332.971,712.235C342.997,718.507 355.029,721.621 369.109,721.621C383.829,721.621 395.989,717.397 405.717,708.949C415.403,700.203 420.267,685.013 420.267,663.424L420.267,437.205L483.627,437.205L483.627,675.627C482.688,712.533 472.064,739.157 451.712,755.413C440.608,764.856 427.661,771.888 413.696,776.064C400.761,780.005 387.325,782.06 373.803,782.165C350.336,782.165 329.515,778.112 311.381,769.963C291.968,761.216 275.712,745.728 262.571,723.499L306.688,687.36C314.795,698.325 323.584,706.603 332.971,712.235Z" style="fill-rule:nonzero;"/>
                    </g>
                </g>
            </g>
        </g>
    </g>
</svg>
